X: 1
T: Margaree
M: 4/4
L: 1/8
R: reel
K: Amaj
e3 d cAAc|(3efe eg fdfa|efed cAAc|Bcde fgaf|
e3 d cAAc|(3efe eg fdfa|efed cAAc|Bcde fefg||
a3 f ecce|abaf =g2 f=g|abaf ecac|Bcde fefg|
a3 f ecce|abaf =g2 f=g|abaf ecac|Bcde fgaf||
